X:22
T: Der Lindenschmied
N: D0022
O: Europa, Mitteleuropa, Lothringen, Metz ( St. Vinzent )
R: historisches Lied
M: 6/8
L: 1/16
K: G
DD | G4G2=F4F2 | _B2d2c2B4
G2 | A4_B2c2c2B2 | G2G2f2G4
A2 | c2d2c2_B4A2 | G6=F4
F2 | _B2d2c2d4dc | _B2c2d2c6 |
d6c2B2A2 | G2D2G2_B2A2G2 | D6G4

@@@ Tune index: 2544
